styles/5/Numix/22/places/brown-folder-rss.svg

<?xml version="1.0" encoding="UTF-8" standalone="no"?>
<!-- Created with Inkscape (http://www.inkscape.org/) -->

<svg
   xmlns:dc="http://purl.org/dc/elements/1.1/"
   xmlns:cc="http://creativecommons.org/ns#"
   xmlns:rdf="http://www.w3.org/1999/02/22-rdf-syntax-ns#"
   xmlns:svg="http://www.w3.org/2000/svg"
   xmlns="http://www.w3.org/2000/svg"
   xmlns:xlink="http://www.w3.org/1999/xlink"
   xmlns:sodipodi="http://sodipodi.sourceforge.net/DTD/sodipodi-0.dtd"
   xmlns:inkscape="http://www.inkscape.org/namespaces/inkscape"
   width="22"
   height="22"
   id="svg2"
   version="1.1"
   inkscape:version="0.91 r"
   sodipodi:docname="brown-folder-rss.svg"
   inkscape:export-filename="/media/Data/Main/Visuals/Icons/Numix/Desktop/repos/numix-wiki/Gjorgi/Numix-folders/48/New/folder-144.png"
   inkscape:export-xdpi="270"
   inkscape:export-ydpi="270">
  <defs
     id="defs4">
    <linearGradient
       id="linearGradient3886-9">
      <stop
         style="stop-color:#000000;stop-opacity:1;"
         offset="0"
         id="stop3888-1" />
      <stop
         style="stop-color:#000000;stop-opacity:0.19607843;"
         offset="1"
         id="stop3890-9" />
    </linearGradient>
    <radialGradient
       r="24"
       fy="40.5"
       fx="24"
       cy="40.5"
       cx="24"
       gradientTransform="matrix(0.625,0,0,0.10416663,-4,1045.1435)"
       gradientUnits="userSpaceOnUse"
       id="radialGradient3288"
       xlink:href="#linearGradient3886-9"
       inkscape:collect="always" />
  </defs>
  <sodipodi:namedview
     id="base"
     pagecolor="#ffffff"
     bordercolor="#666666"
     borderopacity="1.0"
     inkscape:pageopacity="0.0"
     inkscape:pageshadow="2"
     inkscape:zoom="22.60317"
     inkscape:cx="8.2784393"
     inkscape:cy="7.6345779"
     inkscape:document-units="px"
     inkscape:current-layer="layer1"
     showgrid="true"
     inkscape:window-width="1280"
     inkscape:window-height="998"
     inkscape:window-x="0"
     inkscape:window-y="0"
     inkscape:window-maximized="1"
     showguides="true"
     inkscape:guide-bbox="true">
    <inkscape:grid
       type="xygrid"
       id="grid2985"
       empspacing="5"
       visible="true"
       enabled="true"
       snapvisiblegridlinesonly="true" />
  </sodipodi:namedview>
  <metadata
     id="metadata7">
    <rdf:RDF>
      <cc:Work
         rdf:about="">
        <dc:format>image/svg+xml</dc:format>
        <dc:type
           rdf:resource="http://purl.org/dc/dcmitype/StillImage" />
        <dc:title />
      </cc:Work>
    </rdf:RDF>
  </metadata>
  <g
     inkscape:label="Layer 1"
     inkscape:groupmode="layer"
     id="layer1"
     transform="translate(0,-1030.3622)">
    <path
       inkscape:connector-curvature="0"
       style="opacity:0.1;fill:url(#radialGradient3288);fill-opacity:1;stroke:none"
       d="m 11,1046.8622 c -4.9132745,0 -9.2639851,0.3915 -12,1 l 0,3 c 2.7360149,0.6085 7.0867255,1 12,1 4.913274,0 9.263985,-0.3915 12,-1 l 0,-3 c -2.736015,-0.6085 -7.086726,-1 -12,-1 z"
       id="path3868" />
    <rect
       style="fill:#5d4037;fill-opacity:1;stroke:none"
       id="rect2987"
       width="22"
       height="16.00001"
       x="0"
       y="1034.3622"
       rx="2.3913043"
       ry="2.5" />
    <path
       style="opacity:0.2;fill:#ffffff;fill-opacity:1;stroke:none"
       d="M 2.3913043,1034.3622 C 1.0665217,1034.3622 0,1035.4772 0,1036.8622 l 0,1 c 0,-1.385 1.0665217,-2.5 2.3913043,-2.5 l 17.2173917,0 c 1.324782,0 2.391304,1.115 2.391304,2.5 l 0,-1 c 0,-1.385 -1.066522,-2.5 -2.391304,-2.5 l -17.2173917,0 z"
       id="rect3797"
       inkscape:connector-curvature="0" />
    <path
       style="fill:#8d6e63;fill-opacity:1;stroke:none"
       d="m 2.3913043,1038.3622 3.826087,0 c 5.2608697,-0.5 4.3043477,-6 7.6521737,-6 l 5.739131,0 c 1.324782,0 2.391304,1.115 2.391304,2.5 l 0,13 c 0,1.385 -1.066522,2.5 -2.391304,2.5 l -17.2173917,0 C 1.0665217,1050.3622 0,1049.2472 0,1047.8622 l 0,-7 c 0,-1.5 0.9565217,-2.5 2.3913043,-2.5 z"
       id="rect3776"
       inkscape:connector-curvature="0"
       sodipodi:nodetypes="cccsssssscc" />
    <path
       style="opacity:1;fill:#000000;fill-opacity:0.09803922000000000;fill-rule:nonzero;stroke:none"
       d="M 2 11 L 2 12 C 4.9594397 12.3268 8.0117187 15.0585 8 18 L 9 18 C 9 13.7981 5.2265226 11.133 2 11 z M 2 13 L 2 14 C 3.6037735 14.1319 5.982115 16.1287 6 18 L 7 18 C 6.930245 15.1465 3.9921335 13.2026 2 13 z M 3 16 C 2.4477153 16 2 16.447715 2 17 C 2 17.552285 2.4477153 18 3 18 C 3.5522847 18 4 17.552285 4 17 C 4 16.447715 3.5522847 16 3 16 z "
       transform="translate(0,1030.3622)"
       id="path6234" />
    <path
       style="opacity:0.15;fill:#000000;fill-opacity:1;stroke:none"
       d="m 0,1046.8622 0,1 c 0,1.385 1.0665217,2.5 2.3913043,2.5 l 17.2173917,0 c 1.324782,0 2.391304,-1.115 2.391304,-2.5 l 0,-1 c 0,1.385 -1.066522,2.5 -2.391304,2.5 l -17.2173917,0 C 1.0665217,1049.3622 0,1048.2472 0,1046.8622 z"
       id="path3786"
       inkscape:connector-curvature="0" />
    <path
       style="opacity:1;fill:#fff8e1;fill-opacity:1;fill-rule:nonzero;stroke:none"
       d="m 2,1040.3622 0,1 c 2.9594397,0.3268 6.0117187,3.0585 6,6 l 1,0 c 0,-4.2019 -3.7734774,-6.867 -7,-7 z m 0,2 0,1 c 1.6037735,0.1319 3.982115,2.1287 4,4 l 1,0 c -0.069755,-2.8535 -3.0078665,-4.7974 -5,-5 z"
       id="path3394"
       inkscape:connector-curvature="0"
       sodipodi:nodetypes="cccccccccc" />
    <path
       sodipodi:type="arc"
       style="opacity:1;fill:#fff8e1;fill-opacity:1;fill-rule:evenodd;stroke:none"
       id="path5724"
       sodipodi:cx="3"
       sodipodi:cy="16"
       sodipodi:rx="1"
       sodipodi:ry="1"
       d="m 4,16 a 1,1 0 1 1 -2,0 1,1 0 1 1 2,0 z"
       transform="translate(0,1030.3622)" />
  </g>
</svg>

<!-- Created with Inkscape (http://www.inkscape.org/) -->
<svg xmlns="http://www.w3.org/2000/svg" viewBox="0 0 22 22">
 <defs>
  <radialGradient r="24" cy="40.5" cx="24" gradientTransform="matrix(0.625,0,0,0.10416663,-4,1045.1435)" gradientUnits="userSpaceOnUse" id="radialGradient3288">
   <stop style="stop-color:#000;stop-opacity:1"/>
   <stop offset="1" style="stop-color:#000;stop-opacity:0.196"/>
  </radialGradient>
 </defs>
 <g transform="translate(0,-1030.3622)">
  <path d="m 11 1046.86 c -4.913 0 -9.264 0.391 -12 1 l 0 3 c 2.736 0.609 7.087 1 12 1 4.913 0 9.264 -0.391 12 -1 l 0 -3 c -2.736 -0.609 -7.087 -1 -12 -1 z" style="fill:url(#radialGradient3288);opacity:0.1;fill-opacity:1;stroke:none"/>
  <rect width="22" height="16" y="1034.36" rx="2.391" ry="2.5" style="fill:#5d4037;fill-opacity:1;stroke:none"/>
  <path d="m 2.391 1034.36 c -1.325 0 -2.391 1.115 -2.391 2.5 l 0 1 c 0 -1.385 1.067 -2.5 2.391 -2.5 l 17.217 0 c 1.325 0 2.391 1.115 2.391 2.5 l 0 -1 c 0 -1.385 -1.067 -2.5 -2.391 -2.5 l -17.217 0 z" style="fill:#fff;opacity:0.2;fill-opacity:1;stroke:none"/>
  <path d="m 2.391 1038.36 3.826 0 c 5.261 -0.5 4.304 -6 7.652 -6 l 5.739 0 c 1.325 0 2.391 1.115 2.391 2.5 l 0 13 c 0 1.385 -1.067 2.5 -2.391 2.5 l -17.217 0 c -1.325 0 -2.391 -1.115 -2.391 -2.5 l 0 -7 c 0 -1.5 0.957 -2.5 2.391 -2.5 z" style="fill:#8d6e63;fill-opacity:1;stroke:none"/>
  <path d="m 2 11 l 0 1 c 2.959 0.327 6.01 3.059 6 6 l 1 0 c 0 -4.202 -3.773 -6.867 -7 -7 z m 0 2 l 0 1 c 1.604 0.132 3.982 2.129 4 4 l 1 0 c -0.07 -2.854 -3.01 -4.797 -5 -5 z m 1 3 c -0.552 0 -1 0.448 -1 1 c 0 0.552 0.448 1 1 1 c 0.552 0 1 -0.448 1 -1 c 0 -0.552 -0.448 -1 -1 -1 z" transform="translate(0,1030.3622)" style="fill:#000;opacity:1;fill-opacity:0.098;stroke:none;fill-rule:nonzero"/>
  <path d="m 0 1046.86 0 1 c 0 1.385 1.067 2.5 2.391 2.5 l 17.217 0 c 1.325 0 2.391 -1.115 2.391 -2.5 l 0 -1 c 0 1.385 -1.067 2.5 -2.391 2.5 l -17.217 0 c -1.325 0 -2.391 -1.115 -2.391 -2.5 z" style="fill:#000;opacity:0.15;fill-opacity:1;stroke:none"/>
  <path d="m 2 1040.36 0 1 c 2.959 0.327 6.01 3.059 6 6 l 1 0 c 0 -4.202 -3.773 -6.867 -7 -7 z m 0 2 0 1 c 1.604 0.132 3.982 2.129 4 4 l 1 0 c -0.07 -2.853 -3.01 -4.797 -5 -5 z" style="fill:#fff8e1;opacity:1;fill-opacity:1;stroke:none;fill-rule:nonzero"/>
  <path d="m 4 16 a 1 1 0 1 1 -2 0 1 1 0 1 1 2 0 z" transform="translate(0,1030.3622)" style="fill:#fff8e1;opacity:1;fill-opacity:1;stroke:none;fill-rule:evenodd"/>
 </g>
</svg>
